X: 1
T: Marie's Wedding
M: 2/4
L: 1/8
R: polka
K: Dmaj
|:DEDE|GAB2|AGEG|BABd|DEDE|GAB2|AGEG|D2D2:|
|:ddde|dc^B2|AGEG|BABd2|ddde|dc^B2|AGEG|D2D2:|
